X: 1047
T: She'll Be Coming Around The Mountain
B: kids songs
M:4/4
L:1/4
Q: 1/4=130
K:D
V:1 
AB |"D"dd dd|"D"BA FA|"D"d4-|"D"d2 de|"D"ff ff|"D"aa fd|"E7"e4-|
"A7"e2 ag|"D"f f f f |"D7"ed d d|"G"Bd dd|edcB|"D"Ad dd|"E7"fe "A7"dc|"D"d4-\
|"D"d2 ||
W: She'll be coming 'round the mountain when she comes
W: She'll be coming 'round the mountain when she comes
W: She'll be coming 'round the mountain
W: She'll be coming 'round the mountain
W: She'll be coming 'round the mountain when she comes
W: 
W: She'll be ridin' six white horses when she comes
W: She'll be ridin' six white horses when she comes
W: She'll be ridin' six white horses
W: She'll be ridin' six white horses
W: She'll be ridin' six white horses when she comes
W: 
W: And we'll all go out to greet her when she comes
W: Yeah, we'll all go out to greet her when she comes
W: Oh, we'll all go out to greet her
W: Yeah, we'll all go out to greet her
W: We'll all go out to greet her when she comes
W: 
% abcbook-tune_id 62829c7750451a31d6e861fb


% abcbook-boost 0
% abcbook-tablature 
% abcbook-transpose 
% abcbook-lastupdated 1653910500560
% abcbook-soundfonts 
% abcbook-repeats 1


